X:10
T:Waltz.
C:John Malchair's Third Collection of Tunes
F:https://www.vwml.org/record/Malchair/3619/p1
F:www.vwml.org/topics/historic-dance-and-tune-books/Malchair
Z:Eric Conrad Feb 2020
M:3/8
L:1/16
R:waltz
K:D
P:A
|: d3efg | a2a2a2 | {/b}a2^g2a2 | e4f2 | =g2f2g2 | B4e2 | dcBABc |1 d6 :|2 d4 ||
P:B
|: d'2 | d'c'bad'2 | d'c'bad'b | a2g2f2 | e4d'2 | d'c'bad'2 | d'c'bad'b | a>gf2e2 | d4 :|

